src/iconsRaw/arrows.svg

<?xml version="1.0" encoding="UTF-8" standalone="no"?>
<svg
   xmlns:dc="http://purl.org/dc/elements/1.1/"
   xmlns:cc="http://creativecommons.org/ns#"
   xmlns:rdf="http://www.w3.org/1999/02/22-rdf-syntax-ns#"
   xmlns:svg="http://www.w3.org/2000/svg"
   xmlns="http://www.w3.org/2000/svg"
   xmlns:sodipodi="http://sodipodi.sourceforge.net/DTD/sodipodi-0.dtd"
   xmlns:inkscape="http://www.inkscape.org/namespaces/inkscape"
   width="512"
   height="512"
   viewBox="0 0 512 512"
   id="svg3336"
   version="1.1"
   inkscape:version="0.91 r13725"
   sodipodi:docname="arrows2.svg">
  <metadata
     id="metadata3344">
    <rdf:RDF>
      <cc:Work
         rdf:about="">
        <dc:format>image/svg+xml</dc:format>
        <dc:type
           rdf:resource="http://purl.org/dc/dcmitype/StillImage" />
        <dc:title></dc:title>
      </cc:Work>
    </rdf:RDF>
  </metadata>
  <defs
     id="defs3342" />
  <sodipodi:namedview
     pagecolor="#ffffff"
     bordercolor="#666666"
     borderopacity="1"
     objecttolerance="10"
     gridtolerance="10"
     guidetolerance="10"
     inkscape:pageopacity="0"
     inkscape:pageshadow="2"
     inkscape:window-width="1920"
     inkscape:window-height="1017"
     id="namedview3340"
     showgrid="false"
     inkscape:zoom="0.47321429"
     inkscape:cx="896"
     inkscape:cy="896"
     inkscape:window-x="-8"
     inkscape:window-y="-8"
     inkscape:window-maximized="1"
     inkscape:current-layer="svg3336" />
  <path
     d="m 512,256 q 0,7.4286 -5.42857,12.8571 L 433.42857,342 q -5.42857,5.4286 -12.85714,5.4286 -7.42857,0 -12.85714,-5.4286 -5.42858,-5.4286 -5.42858,-12.8571 l 0,-36.5715 -109.71428,0 0,109.7143 36.57143,0 q 7.42857,0 12.85714,5.4286 5.42857,5.4286 5.42857,12.8571 0,7.4286 -5.42857,12.8572 l -73.14286,73.1428 Q 263.42857,512 256,512 q -7.42857,0 -12.85714,-5.4286 L 170,433.4286 q -5.42857,-5.4286 -5.42857,-12.8572 0,-7.4285 5.42857,-12.8571 5.42857,-5.4286 12.85714,-5.4286 l 36.57143,0 0,-109.7143 -109.71428,0 0,36.5715 q 0,7.4285 -5.42858,12.8571 -5.428567,5.4286 -12.857139,5.4286 Q 84,347.4286 78.571429,342 L 5.4285714,268.8571 Q 0,263.4286 0,256 0,248.5714 5.4285714,243.1429 L 78.571429,170 Q 84,164.5714 91.428571,164.5714 q 7.428572,0 12.857139,5.4286 5.42858,5.4286 5.42858,12.8571 l 0,36.5715 109.71428,0 0,-109.7143 -36.57143,0 q -7.42857,0 -12.85714,-5.4286 -5.42857,-5.4286 -5.42857,-12.8571 Q 164.57143,84 170,78.5714 L 243.14286,5.4286 Q 248.57143,0 256,0 q 7.42857,0 12.85714,5.4286 L 342,78.5714 q 5.42857,5.4286 5.42857,12.8572 0,7.4285 -5.42857,12.8571 -5.42857,5.4286 -12.85714,5.4286 l -36.57143,0 0,109.7143 109.71428,0 0,-36.5715 q 0,-7.4285 5.42858,-12.8571 5.42857,-5.4286 12.85714,-5.4286 7.42857,0 12.85714,5.4286 l 73.14286,73.1429 Q 512,248.5714 512,256 Z"
     id="path3338"
     inkscape:connector-curvature="0" />
</svg>

<?xml version="1.0" encoding="utf-8"?>
<!-- Generated by IcoMoon.io -->
<!DOCTYPE svg PUBLIC "-//W3C//DTD SVG 1.1//EN" "http://www.w3.org/Graphics/SVG/1.1/DTD/svg11.dtd">
<svg version="1.1" xmlns="http://www.w3.org/2000/svg" xmlns:xlink="http://www.w3.org/1999/xlink" width="512" height="512" viewBox="0 0 512 512">
<path fill="#444444" d="M512 256q0 7.428-5.428 12.857l-73.143 73.143q-5.428 5.428-12.857 5.428t-12.857-5.428-5.428-12.857v-36.572h-109.714v109.714h36.572q7.428 0 12.857 5.428t5.428 12.857-5.428 12.857l-73.143 73.143q-5.428 5.428-12.857 5.428t-12.857-5.428l-73.143-73.143q-5.428-5.428-5.428-12.857t5.428-12.857 12.857-5.428h36.571v-109.714h-109.715v36.572q0 7.428-5.429 12.857t-12.857 5.428-12.857-5.428l-73.143-73.143q-5.429-5.428-5.429-12.857t5.429-12.857l73.143-73.143q5.429-5.428 12.857-5.428t12.857 5.428 5.429 12.857v36.571h109.715v-109.715h-36.572q-7.428 0-12.857-5.429t-5.429-12.857 5.428-12.857l73.143-73.143q5.429-5.429 12.857-5.429t12.857 5.429l73.143 73.143q5.428 5.429 5.428 12.857t-5.428 12.857-12.857 5.429h-36.572v109.715h109.714v-36.572q0-7.428 5.428-12.857t12.857-5.429 12.857 5.428l73.143 73.143q5.428 5.429 5.428 12.857z"></path>
</svg>
